X: 40422
T: Tom Mhic's
R: polka
M: 2/4
K: Dmajor
|:c/B/|AB cd|ed c/d/c/B/|AB cd|ed e/f/e/c/|
A>B cd|ed c>B|AB ce|d2 d:|
|:f|af ed|f2 e2|AB cd|e2 ef|
a>f ed|fg/f/ e2|AA/B/ ce|d2- d:|

